X: 3
T: The Belles Of Tipperary
R: reel
M: 4/4
L: 1/8
K: Dmaj
DA,~A,2 DEFA|defe dB (3BBB|BAFA AB{Bc}BA|FEDE FEE2|DA,~A,2 DEFA|defe dB (3BBB|~d3B ABdB|AFEG FED2:||:~a3b afdf|(3gfe fd cde2|(3gbg ef gbag|(3fff gf e4|dB~B2 AF~F2|DF~F2 ABde|(3fff ec dBAF|GFEG FED2:||


Tune 769	Setting 13891

